X:3
T:Na Sopkakh Manchurii
T:The Hills of Manchuria
R:misc
C:Ilya Alekseevitch Shatrov (1885-1952), Russia
H:Original key Fm. See also #8 in Gm.
Z:id:hn-misc-3
M:3/4
L:1/8
Q:1/4=160
K:Dm
"Dm" A6- | A2 F2 G2 | A6- | A6 | "A7" G2A2^c2 | f4 e2 |
"Dm" d6- | d6 | A2d2f2 | "A7" ^c4d2 | "Gm6" e2d2B2 | e4d2 |
"A7" A2d2e2 | f4e2 |1 "Dm" d6- | d6 :|2 "Dm" d6- | d2 {B}A^GAB ||
|: "A7" A3EE2 | z2F2G2 | "Dm" A6- | A2 c=Bcd |
"C7" c3GG2 | z2A2B2 | "F" c6- | c2c2 "Gdim" ^c2 |
"Dm" d3AA2 | (3ABA ^G2A2 | "C" c4 "Bb"B2 | z2c2B2 | 
"Dm" f2e2d2 | "A7" ^c4e2 |1 "Dm" d6- | d2 {B}A^GAB :|2 "Dm" d6- | d2 d2 ^c2 ||
|: "D7" d4_e2 | d4=c2 | "Gm" c4B2 | B2A2G2 |
"C7" c4d2 | c4B2 | "Dm" B2A2^G2 | A2^G2A2 |
"Dm" d2F2A2 | d2f3e | "Gm" d2c2B2 | "Gm6" d4B2 |
"Dm" F2A2G2 | "A7" E4F2 |1 "Dm" D6- | D2d2^c2 :|2 "Dm" D6- | D2 z2 z2 ||

